img/icons/fc.svg

<svg width="24" height="24" viewBox="0 0 24 24" fill="none" xmlns="http://www.w3.org/2000/svg">
<g clip-path="url(#clip0_2_1211)">
<g clip-path="url(#clip1_2_1211)">
<path d="M13.9359 23.8453C13.8375 23.8594 13.7344 23.8781 13.6359 23.8922C13.7344 23.8735 13.8328 23.8594 13.9359 23.8453Z" fill="black"/>
<path d="M14.175 23.8031C14.1281 23.8125 14.0812 23.8219 14.0297 23.8265C14.0812 23.8219 14.1281 23.8125 14.175 23.8031Z" fill="black"/>
<path d="M13.3641 23.9203C13.2469 23.9344 13.1297 23.9437 13.0125 23.9531C13.1297 23.9484 13.2469 23.9344 13.3641 23.9203Z" fill="black"/>
<path d="M13.5984 23.8922C13.5422 23.9016 13.4859 23.9063 13.4297 23.911C13.4813 23.9063 13.5422 23.9016 13.5984 23.8922Z" fill="black"/>
<path d="M14.5031 23.7375C14.4609 23.7469 14.4188 23.7562 14.3766 23.7656C14.4188 23.7562 14.4609 23.7469 14.5031 23.7375Z" fill="black"/>
<path d="M15.3141 23.5359C15.2813 23.5453 15.2437 23.5547 15.2109 23.5641C15.2437 23.5547 15.2766 23.5453 15.3141 23.5359Z" fill="black"/>
<path d="M15.0656 23.6016C15.0281 23.6109 14.9906 23.6203 14.9531 23.6297C14.9953 23.625 15.0281 23.6156 15.0656 23.6016Z" fill="black"/>
<path d="M14.7469 23.6859C14.7094 23.6953 14.6672 23.7047 14.6297 23.714C14.6672 23.7 14.7094 23.6906 14.7469 23.6859Z" fill="black"/>
<path d="M13.0078 23.9578C12.9469 23.9625 12.8812 23.9672 12.8203 23.9719C12.8812 23.9672 12.9469 23.9625 13.0078 23.9578Z" fill="black"/>
<path d="M24 12C24 5.37188 18.6281 0 12 0C5.37188 0 0 5.37188 0 12C0 18.6281 5.37188 24 12 24C12.0703 24 12.1406 24 12.2109 23.9953V14.6578H9.63281V11.6531H12.2109V9.44062C12.2109 6.87656 13.7766 5.47969 16.0641 5.47969C17.1609 5.47969 18.1031 5.55938 18.375 5.59688V8.27813H16.8C15.5578 8.27813 15.3141 8.86875 15.3141 9.73594V11.6484H18.2906L17.9016 14.6531H15.3141V23.5359C20.3297 22.0969 24 17.4797 24 12Z" fill="black"/>
<path d="M12.7922 23.9719C12.6656 23.9812 12.5437 23.9859 12.4172 23.9906C12.5437 23.9859 12.6656 23.9812 12.7922 23.9719Z" fill="black"/>
<path d="M12.4125 23.9906C12.3469 23.9906 12.2813 23.9953 12.2156 23.9953C12.2766 23.9953 12.3422 23.9953 12.4125 23.9906Z" fill="black"/>
</g>
</g>
<defs>
<clipPath id="clip0_2_1211">
<rect width="24" height="24" fill="white"/>
</clipPath>
<clipPath id="clip1_2_1211">
<rect width="24" height="24" fill="white"/>
</clipPath>
</defs>
</svg>

<svg width="24" height="24" fill="none" xmlns="http://www.w3.org/2000/svg"><g clip-path="url(#a)"><g clip-path="url(#b)" fill="#000"><path d="M13.936 23.845c-.098.014-.202.033-.3.047.098-.018.197-.033.3-.047ZM14.175 23.803c-.047.01-.094.019-.145.023.051-.004.098-.014.145-.023ZM13.364 23.92a4.443 4.443 0 0 0 0 0ZM13.598 23.892c-.056.01-.112.014-.168.019.051-.005.112-.01.168-.019ZM14.503 23.738l-.126.028c.042-.01.084-.02.126-.028ZM15.314 23.536l-.103.028c.033-.01.066-.019.103-.028ZM15.066 23.602l-.113.028a.443.443 0 0 0 .113-.028ZM14.747 23.686l-.117.028a.537.537 0 0 1 .117-.028ZM13.008 23.958l-.188.014.188-.014ZM24 12c0-6.628-5.372-12-12-12S0 5.372 0 12s5.372 12 12 12c.07 0 .14 0 .21-.005v-9.337H9.634v-3.005h2.578V9.441c0-2.564 1.566-3.961 3.853-3.961 1.097 0 2.04.08 2.311.117v2.681H16.8c-1.242 0-1.486.59-1.486 1.458v1.912h2.977l-.39 3.005h-2.587v8.883C20.33 22.096 24 17.48 24 12ZM12.792 23.972ZM12.412 23.99c-.065 0-.13.005-.196.005.06 0 .126 0 .197-.004Z"/></g></g><defs><clipPath id="a"><path fill="#fff" d="M0 0h24v24H0z"/></clipPath><clipPath id="b"><path fill="#fff" d="M0 0h24v24H0z"/></clipPath></defs></svg>
